src/components/Icon/assets/realtime.svg

<svg width="24" height="24" viewBox="0 0 24 24" fill="none" xmlns="http://www.w3.org/2000/svg">
<path fill-rule="evenodd" clip-rule="evenodd" d="M12.0002 20.0001C7.5892 20.0001 4.0002 16.4111 4.0002 12.0001C4.0002 7.58911 7.5892 4.00011 12.0002 4.00011C13.8462 4.00011 15.5422 4.63411 16.8972 5.68811L16.2072 6.37911C13.4562 4.31911 9.5302 4.53111 7.0302 7.03011L8.0912 8.09111C10.0042 6.17911 12.9782 5.97211 15.1312 7.45511L14.3682 8.21811C13.3772 7.59411 12.1772 7.37611 11.0022 7.64411C10.1852 7.83111 9.4372 8.24511 8.8412 8.84111L9.9012 9.90111C10.2972 9.50511 10.7942 9.23011 11.3362 9.10711C11.9982 8.95411 12.6642 9.05311 13.2542 9.33211L12.5122 10.0741C12.3482 10.0301 12.1782 9.99911 12.0002 9.99911C10.8962 9.99911 10.0002 10.8951 10.0002 11.9991C10.0002 13.1041 10.8962 13.9991 12.0002 13.9991C13.1042 13.9991 14.0002 13.1041 14.0002 11.9991C14.0002 11.8211 13.9692 11.6521 13.9262 11.4881L18.3122 7.10311C19.3662 8.45811 20.0002 10.1541 20.0002 12.0001C20.0002 16.4111 16.4112 20.0001 12.0002 20.0001M12.0002 2.00011C6.4862 2.00011 2.0002 6.48611 2.0002 12.0001C2.0002 17.5141 6.4862 22.0001 12.0002 22.0001C17.5142 22.0001 22.0002 17.5141 22.0002 12.0001C22.0002 6.48611 17.5142 2.00011 12.0002 2.00011" fill="#65676A"/>
</svg>

<svg xmlns="http://www.w3.org/2000/svg" width="24" height="24" viewBox="0 0 24 24">
    <path fill="#65676A" fill-rule="evenodd" d="M12 20c-4.41 0-8-3.589-8-8 0-4.41 3.59-8 8-8 1.846 0 3.542.634 4.897 1.688l-.69.691c-2.75-2.06-6.677-1.848-9.177.651l1.061 1.061c1.913-1.912 4.887-2.119 7.04-.636l-.763.763c-.99-.624-2.19-.842-3.366-.574-.817.187-1.565.601-2.16 1.197l1.06 1.06c.395-.396.892-.67 1.434-.794.662-.153 1.328-.054 1.918.225l-.742.742C12.348 10.03 12.178 10 12 10c-1.104 0-2 .896-2 2 0 1.105.896 2 2 2s2-.895 2-2c0-.178-.03-.347-.074-.51l4.386-4.386C19.366 8.458 20 10.154 20 12c0 4.411-3.589 8-8 8m0-18C6.486 2 2 6.486 2 12s4.486 10 10 10 10-4.486 10-10S17.514 2 12 2"/>
</svg>
